src/switch.svg

<svg viewBox="0 0 16 16" fill="none" xmlns="http://www.w3.org/2000/svg"><path fill-rule="evenodd" clip-rule="evenodd" d="M11.46 1.88001L13.0877 3.5H4.5C3.83696 3.5 3.20107 3.76339 2.73223 4.23223C2.26339 4.70107 2 5.33696 2 6V7H3V6C3 5.60218 3.15804 5.22064 3.43934 4.93934C3.72064 4.65804 4.10218 4.5 4.5 4.5H13.0877L11.46 6.12001L12.17 6.83001L14.29 4.71001L15 4.00001L14.29 3.29001L12.17 1.17001L11.46 1.88001ZM12.5607 11.0607C12.842 10.7794 13 10.3978 13 10V9H14V10C14 10.663 13.7366 11.2989 13.2678 11.7678C12.7989 12.2366 12.163 12.5 11.5 12.5H2.90232L4.54 14.13L3.83 14.83L1.71 12.71L1 12.01L1.71 11.3L3.83 9.17999L4.54 9.87999L2.91999 11.5H11.5C11.8978 11.5 12.2794 11.342 12.5607 11.0607Z" fill="#111111"/></svg>

<svg viewBox="0 0 16 16" fill="none" xmlns="http://www.w3.org/2000/svg"><path fill-rule="evenodd" clip-rule="evenodd" d="m11.46 1.88 1.628 1.62H4.5A2.5 2.5 0 0 0 2 6v1h1V6a1.5 1.5 0 0 1 1.5-1.5h8.588L11.46 6.12l.71.71 2.12-2.12L15 4l-.71-.71-2.12-2.12-.71.71Zm1.1 9.18A1.5 1.5 0 0 0 13 10V9h1v1a2.5 2.5 0 0 1-2.5 2.5H2.902l1.638 1.63-.71.7-2.12-2.12-.71-.7.71-.71 2.12-2.12.71.7-1.62 1.62h8.58a1.5 1.5 0 0 0 1.06-.44Z" fill="#111111"/></svg>
